!!!OTL: A Lady Fair, S. 34
!!!id: I0500
**kern
*clefG2
*k[]
*d:
{8a
8g
8e
=1
8.d
16e
8f
8g
8a
8b
=2
8cc
4dd}
=3
{16ee
16ee
16dd
16cc
16a
16g
=4
8.a
16g
8e
8g
8e
8d
=5
4.c}
=6
{8a
8g
8e
=7
8.d
16e
8f
8g
8a
8b
=8
8cc
4dd}
=9
{16ee
16ee
16dd
16cc
16a
16g
=10
4a
8g
16e
16e
8d
8d
=11
4.d}
=12
{8g
8a
8dd
=13
4dd
8a
8b
8cc
8b
=14
8cc
4dd}
=15
{8cc
8a
8a
=16
4a
8g
8e
8d
8d
=17
4.c}
=18
{8a
8g
8e
=19
8.d
16e
8f
8g
8a
8b
=20
8cc
4dd}
=21
{8ee
16dd
16cc
16a
16g
=22
16a
8a
16a
8g
8e
8d
8d
=23
4.d}
==
*-
!!!minrhy: 16
!!!meters: 3/4 ]  ZZ[8
!!!cut: A Lady Fair, S. 34
!!!reg: Irland
!!!trd: O BOYLE, Sean: 25 Irish Folksongs, Dublin 1976
!!!rhy1: X_X_X_  X_.XX_X_X_X_  X_X__
!!!rhy2: XXXXXX  X_.XX_X_X_X_  X__.
!!!key: I0500  16  D 3/4 ]  ZZ[8
!!!mod: HEPTATONIK DORISCH]  AMBITUS[10
!!!kad: +1-7b+11+1-7b+11
!!!akz: 17b_5-7b_17b_51_+17b_5-7b_17b_51_
!!!fot: 'a__b__a__c__d__e__a__cv_
!!!for: 'a__aw_a__b__c__cw_a__d__
!!!fok: 'Va_\__Va_\__/__\__Va_\__
!! PHRAS[AUFTAKTIG]
!!!fkt: Brautwerbung, Standesunterschied
!! IRISCHE VKL.
!! PR[40] 2K[1] 2G[8] 3K[8] 3G[1] 4A[4] 4Ü[0] 5A[2] 6K[0] 6G[0]
!! 7K[0] 7G[0] 8A[0] MEHR[0] SI[24] ABS[102] SR[9] SP[15]
!! ST[32] 2k[5] 2g[22] 3k[10] 3g[0] 4d[0] 4ü[0] 5d[0] 6k[0] 6g[0]
!! 7k[0] 7g[0] 8d[0] mehr[0] si[36] dm[-12] sr[26] sp[10]
!! 1F[76] 2F[24] 3F[0] 4F[0] LF[0] 2P[0] 3P[0] 4P[0] TRI[0] DF[2] AB[103]
!! TF[0] U3K[0] U3[0] U4[12] U4Ü[0] U5[6] U6K[0] U6[0] U7K[17] U7[0]
!! N1[24] N2K[1] N2[0] N3K[11] N3[0] N4[16] N4Ü[0] N5[11] N6K[4] N6[0]
!!!n7k: 0] N7[0] O1[0] O2K[0] O2[0] O3K[0] O3[0] HÖ[0
